domain-plus.svg

<svg fill="currentColor" viewBox="0 0 24 24"><path d="M12 7V3H2v18h11.35a5.8 5.8 0 0 1-.35-2h-1v-2h1.35a5 5 0 0 1 .65-1.31V15h-2v-2h2v-2h-2V9h8v4.09a5.6 5.6 0 0 1 2 .72V7M6 19H4v-2h2m0-2H4v-2h2m0-2H4V9h2m0-2H4V5h2m4 14H8v-2h2m0-2H8v-2h2m0-2H8V9h2m0-2H8V5h2m6 8h2v-2h-2m0 0v2h2v-2m-2 0v2h2v-2m2 4v3h3v2h-3v3h-2v-3h-3v-2h3v-3Z"/></svg>

<svg  viewBox="0 0 24 24" fill="currentColor"><path  d="M12 7V3H2V21H13.35A5.8 5.8 0 0 1 13 19H12V17H13.35A5 5 0 0 1 14 15.69V15H12V13H14V11H12V9H20V13.09A5.58 5.58 0 0 1 22 13.81V7M6 19H4V17H6M6 15H4V13H6M6 11H4V9H6M6 7H4V5H6M10 19H8V17H10M10 15H8V13H10M10 11H8V9H10M10 7H8V5H10M16 13H18V11H16M16 11V13H18V11M16 11V13H18V11M20 15V18H23V20H20V23H18V20H15V18H18V15Z"/></svg>
